public/mars.svg

<svg viewBox="0 0 24 24" fill="none" xmlns="http://www.w3.org/2000/svg">
    <g id="SVGRepo_bgCarrier" stroke-width="0"></g>
    <g id="SVGRepo_tracerCarrier" stroke-linecap="round" stroke-linejoin="round"></g>
    <g id="SVGRepo_iconCarrier">
        <path fill-rule="evenodd" clip-rule="evenodd" d="M9.41848 5.98345C9.01199 6.20074 8.68017 6.5143 8.48392 6.86938C8.29049 7.21934 8.20035 7.67497 8.42255 8.09066C8.64475 8.50636 9.07368 8.68453 9.47213 8.71812C9.87639 8.75219 10.3215 8.6505 10.728 8.43321C11.1345 8.21592 11.4663 7.90235 11.6625 7.54728C11.8559 7.19732 11.9461 6.74169 11.7239 6.32599C11.5017 5.9103 11.0728 5.73213 10.6743 5.69854C10.27 5.66447 9.82498 5.76616 9.41848 5.98345ZM9.30446 7.61925C9.29524 7.602 9.26638 7.52092 9.35913 7.35312C9.44905 7.19043 9.62828 7.0052 9.88989 6.86536C10.1515 6.72552 10.4051 6.6794 10.5903 6.69501C10.7814 6.71111 10.8328 6.78015 10.842 6.79741C10.8512 6.81466 10.8801 6.89574 10.7873 7.06354C10.6974 7.22623 10.5182 7.41146 10.2565 7.5513C9.99494 7.69113 9.74134 7.73726 9.55612 7.72165C9.36507 7.70555 9.31369 7.63651 9.30446 7.61925Z" fill="#9C2E35"></path>
        <path d="M8 15C8.55228 15 9 14.7761 9 14.5C9 14.2239 8.55228 14 8 14C7.44772 14 7 14.2239 7 14.5C7 14.7761 7.44772 15 8 15Z" fill="#9C2E35"></path>
        <path d="M14.5 18C14.7761 18 15 17.7761 15 17.5C15 17.2239 14.7761 17 14.5 17C14.2239 17 14 17.2239 14 17.5C14 17.7761 14.2239 18 14.5 18Z" fill="#9C2E35"></path>
        <path fill-rule="evenodd" clip-rule="evenodd" d="M12 3.5C7.30558 3.5 3.5 7.30558 3.5 12C3.5 16.6944 7.30558 20.5 12 20.5C16.6944 20.5 20.5 16.6944 20.5 12C20.5 7.30558 16.6944 3.5 12 3.5ZM4.57817 10.9132C5.10468 7.28607 8.22698 4.5 12 4.5C16.1421 4.5 19.5 7.85786 19.5 12C19.5 12.2221 19.4903 12.4419 19.4714 12.6591C18.3979 13.039 16.0397 13.7734 13.0632 13.3946C12.7892 13.3598 12.5389 13.5536 12.5041 13.8275C12.4692 14.1015 12.663 14.3518 12.9369 14.3866C15.7207 14.7408 18.0021 14.1882 19.2884 13.7765C18.4905 17.0612 15.5301 19.5 12 19.5C7.88139 19.5 4.53817 16.1802 4.50032 12.0705C4.81001 12.3123 5.26583 12.5 6.00001 12.5C6.27615 12.5 6.50001 12.2761 6.50001 12C6.50001 11.7238 6.27615 11.5 6.00001 11.5C5.33194 11.5 4.83752 11.1696 4.57817 10.9132Z" fill="#9C2E35"></path>
    </g>
</svg>

<svg xmlns="http://www.w3.org/2000/svg" fill="none" viewBox="0 0 24 24">
    <g fill="#9C2E35">
        <path fill-rule="evenodd" d="M9.418 5.983c-.406.218-.738.531-.934.886-.194.35-.284.806-.061 1.222.222.415.65.594 1.05.627.403.034.848-.068 1.255-.285.406-.217.738-.53.934-.886.194-.35.284-.805.062-1.221-.222-.416-.651-.594-1.05-.627-.404-.035-.849.067-1.256.284ZM9.304 7.62c-.009-.017-.038-.098.055-.266.09-.163.27-.348.53-.488a1.31 1.31 0 0 1 .701-.17c.191.016.243.085.252.102.01.018.038.099-.055.267a1.31 1.31 0 0 1-.53.487 1.31 1.31 0 0 1-.7.17c-.192-.015-.243-.084-.253-.102Z" clip-rule="evenodd"/>
        <path d="M8 15c.552 0 1-.224 1-.5s-.448-.5-1-.5-1 .224-1 .5.448.5 1 .5ZM14.5 18a.5.5 0 1 0 0-1 .5.5 0 0 0 0 1Z"/>
        <path fill-rule="evenodd" d="M12 3.5a8.5 8.5 0 1 0 0 17 8.5 8.5 0 0 0 0-17Zm-7.422 7.413a7.502 7.502 0 0 1 14.893 1.746c-1.073.38-3.431 1.114-6.408.736a.5.5 0 0 0-.126.992c2.784.354 5.065-.199 6.351-.61A7.5 7.5 0 0 1 4.5 12.07c.31.241.766.429 1.5.429a.5.5 0 0 0 0-1c-.668 0-1.162-.33-1.422-.587Z" clip-rule="evenodd"/>
    </g>
</svg>
